src/assets/svg/spotify.svg

<?xml version="1.0" encoding="UTF-8"?>
<svg width="20px" height="20px" viewBox="0 0 20 20" version="1.1" xmlns="http://www.w3.org/2000/svg" xmlns:xlink="http://www.w3.org/1999/xlink">
    <!-- Generator: Sketch 50.2 (55047) - http://www.bohemiancoding.com/sketch -->
    <title>spotify</title>
    <desc>Created with Sketch.</desc>
    <defs></defs>
    <g id="Page-1" stroke="none" stroke-width="1" fill="none" fill-rule="evenodd">
        <g id="Artboard" transform="translate(-433.000000, -846.000000)" fill="#000000" fill-rule="nonzero">
            <g id="spotify" transform="translate(433.000000, 846.000000)">
                <path d="M14.6744792,14.0885417 C14.6744792,13.8107639 14.5442708,13.5894097 14.2838542,13.4244792 C12.6085069,12.4262153 10.6684028,11.9270833 8.46354167,11.9270833 C7.30902778,11.9270833 6.06336806,12.0746528 4.7265625,12.3697917 C4.36197917,12.4479167 4.1796875,12.6736111 4.1796875,13.046875 C4.1796875,13.2204861 4.23828125,13.3702257 4.35546875,13.4960937 C4.47265625,13.6219618 4.62673611,13.6848958 4.81770833,13.6848958 C4.86111111,13.6848958 5.02170139,13.6501736 5.29947917,13.5807292 C6.4453125,13.3463542 7.5,13.2291667 8.46354167,13.2291667 C10.4253472,13.2291667 12.1484375,13.6762153 13.6328125,14.5703125 C13.7977431,14.6657986 13.9409722,14.7135417 14.0625,14.7135417 C14.2274306,14.7135417 14.3706597,14.6549479 14.4921875,14.5377604 C14.6137153,14.4205729 14.6744792,14.2708333 14.6744792,14.0885417 Z M15.9244792,11.2890625 C15.9244792,10.9418403 15.7725694,10.6770833 15.46875,10.4947917 C13.4114583,9.27083333 11.0329861,8.65885417 8.33333333,8.65885417 C7.00520833,8.65885417 5.69010417,8.84114583 4.38802083,9.20572917 C3.97135417,9.31857639 3.76302083,9.59635417 3.76302083,10.0390625 C3.76302083,10.2560764 3.83897569,10.4405382 3.99088542,10.5924479 C4.14279514,10.7443576 4.32725694,10.8203125 4.54427083,10.8203125 C4.60503472,10.8203125 4.765625,10.7855903 5.02604167,10.7161458 C6.08506944,10.4296875 7.17447917,10.2864583 8.29427083,10.2864583 C10.7161458,10.2864583 12.8342014,10.8246528 14.6484375,11.9010417 C14.8567708,12.0138889 15.0217014,12.0703125 15.1432292,12.0703125 C15.3602431,12.0703125 15.5447049,11.9943576 15.6966146,11.8424479 C15.8485243,11.6905382 15.9244792,11.5060764 15.9244792,11.2890625 Z M17.3307292,8.05989583 C17.3307292,7.65190972 17.1571181,7.34809028 16.8098958,7.1484375 C15.7161458,6.51475694 14.4444444,6.03515625 12.9947917,5.70963542 C11.5451389,5.38411458 10.0564236,5.22135417 8.52864583,5.22135417 C6.7578125,5.22135417 5.17795139,5.42534722 3.7890625,5.83333333 C3.58940972,5.89409722 3.42230903,6.00477431 3.28776042,6.16536458 C3.15321181,6.32595486 3.0859375,6.53645833 3.0859375,6.796875 C3.0859375,7.06597222 3.17491319,7.29166667 3.35286458,7.47395833 C3.53081597,7.65625 3.75434028,7.74739583 4.0234375,7.74739583 C4.11892361,7.74739583 4.29253472,7.71267361 4.54427083,7.64322917 C5.69878472,7.32204861 7.03125,7.16145833 8.54166667,7.16145833 C9.921875,7.16145833 11.265191,7.30902778 12.5716146,7.60416667 C13.8780382,7.89930556 14.9782986,8.31163194 15.8723958,8.84114583 C16.0546875,8.9453125 16.2282986,8.99739583 16.3932292,8.99739583 C16.6449653,8.99739583 16.8641493,8.90842014 17.0507812,8.73046875 C17.2374132,8.55251736 17.3307292,8.32899306 17.3307292,8.05989583 Z M20,10 C20,11.8142361 19.5529514,13.4874132 18.6588542,15.0195312 C17.7647569,16.5516493 16.5516493,17.7647569 15.0195312,18.6588542 C13.4874132,19.5529514 11.8142361,20 10,20 C8.18576389,20 6.51258681,19.5529514 4.98046875,18.6588542 C3.44835069,17.7647569 2.23524306,16.5516493 1.34114583,15.0195312 C0.447048611,13.4874132 0,11.8142361 0,10 C0,8.18576389 0.447048611,6.51258681 1.34114583,4.98046875 C2.23524306,3.44835069 3.44835069,2.23524306 4.98046875,1.34114583 C6.51258681,0.447048611 8.18576389,0 10,0 C11.8142361,0 13.4874132,0.447048611 15.0195312,1.34114583 C16.5516493,2.23524306 17.7647569,3.44835069 18.6588542,4.98046875 C19.5529514,6.51258681 20,8.18576389 20,10 Z" id="Shape"></path>
            </g>
        </g>
    </g>
</svg>

<svg width="20" height="20" xmlns="http://www.w3.org/2000/svg"><path d="M14.674 14.089c0-.278-.13-.5-.39-.665-1.675-.998-3.616-1.497-5.82-1.497-1.155 0-2.4.148-3.737.443-.365.078-.547.304-.547.677 0 .173.058.323.175.45a.602.602 0 0 0 .463.188c.043 0 .204-.035.481-.104 1.146-.235 2.201-.352 3.165-.352 1.961 0 3.684.447 5.169 1.341.165.096.308.144.43.144a.599.599 0 0 0 .43-.176.597.597 0 0 0 .181-.45zm1.25-2.8a.874.874 0 0 0-.455-.794C13.41 9.27 11.033 8.659 8.333 8.659c-1.328 0-2.643.182-3.945.547-.417.113-.625.39-.625.833 0 .217.076.402.228.553a.753.753 0 0 0 .553.228c.061 0 .222-.034.482-.104a12.461 12.461 0 0 1 3.268-.43c2.422 0 4.54.539 6.354 1.615.209.113.374.17.495.17a.753.753 0 0 0 .554-.229.753.753 0 0 0 .227-.553zm1.407-3.23c0-.407-.174-.71-.521-.91-1.094-.634-2.366-1.114-3.815-1.44a20.322 20.322 0 0 0-4.466-.488c-1.771 0-3.351.204-4.74.612-.2.061-.367.172-.501.332-.135.161-.202.371-.202.632 0 .269.089.495.267.677a.898.898 0 0 0 .67.273c.096 0 .27-.034.521-.104 1.155-.321 2.487-.482 3.998-.482 1.38 0 2.723.148 4.03.443 1.306.295 2.406.708 3.3 1.237.183.104.356.156.521.156.252 0 .471-.089.658-.267a.888.888 0 0 0 .28-.67zM20 10c0 1.814-.447 3.487-1.341 5.02a9.955 9.955 0 0 1-3.64 3.639C13.488 19.553 11.815 20 10 20s-3.487-.447-5.02-1.341a9.955 9.955 0 0 1-3.639-3.64C.447 13.488 0 11.815 0 10s.447-3.487 1.341-5.02a9.955 9.955 0 0 1 3.64-3.639C6.512.447 8.185 0 10 0s3.487.447 5.02 1.341a9.955 9.955 0 0 1 3.639 3.64C19.553 6.512 20 8.185 20 10z" fill="#000" fill-rule="nonzero"/></svg>
